X: 936
T: All Along The River Bank
R: polka
M: 2/4
K: Dmajor
F|:AF ED|F2 E2|GF GF|(E2 E)F/G/|
AF ED|F2 E2|GG FE|1 (D2 D)F:|2 (D2 D)E||
|:FA AB|(A2 A)>F|GA B>A|Be e2|
FA AB|(A2 A)f|fe ed|1 (d2 d)A:|2 (d2 d)F/G/||

